!!!!SEGMENT: pl-sa--38-a-i-38--pc0_conti--turba-rustica-pc0.krn
!!!cenid: 17xx:604a
!!!COM: Conti
!!!COM-rismid: pe30000719
!!!CDT:
!!!CNT:
!!!OTL: Turba rustica
!!!PDT: 1766
!!!AGN: Sacred
!!!SMS-siglum: PL-SA
!!!SMS-shelfmark: 38/A I 38
!!!SMS-shelfwork: G
!!!SMS-variant:
!!!SMS-altvar:
!!!NIFC-rismid: 1001029981
!!!URL-scan: http://bc.bdsandomierz.pl/dlibra/publication/1286/edition/1254/content
!!!ONB-nifc:
**kern	**dynam	**fb	**kern	**dynam	**kern	**dynam	**kern	**text
*part4	*part4	*	*part3	*part3	*part2	*part2	*part1	*part1
*group	*group	*	*group1	*group1	*group1	*group1	*group	*group
*staff4	*	*	*staff3	*	*staff2	*	*staff1	*staff1
*I"Cembalo.	*	*	*I"Violino 2do.	*	*I"Violino 1mo.	*	*I"Canto Solo.	*
*I'cemb	*	*	*I'vl 2	*	*I'vl 1	*	*I'C	*
*clefF4	*	*	*clefG2	*	*clefG2	*	*clefC1	*
*k[f#c#]	*	*	*k[f#c#]	*	*k[f#c#]	*	*k[f#c#]	*
*D:	*	*	*D:	*	*D:	*	*D:	*
*M4/4	*	*	*M4/4	*	*M4/4	*	*M4/4	*
*met(c)	*	*	*met(c)	*	*met(c)	*	*met(c)	*
=1	=1	=1	=1	=1	=1	=1	=1	=1
*	*	*above	*	*	*	*	*	*
!	!	!	!LO:TX:a:t=P:problem:mixed beam	!	!LO:TX:a:t=P:problem:mixed beam	!	!	!
!LO:TX:b:t=Turba.	!	!	!LO:TX:b:t=Turba	!	!LO:TX:b:t=Turba.	!	!	!
!LO:TX:a:t=Allegro.	!	!	!LO:TX:a:i:t=All(egr)o.	!	!LO:TX:a:i:t=All(egr)o.	!	!LO:TX:a:i:t=All(egr)o. ſtocato.	!
8D\L	.	.	8d/L	.	8d/L	.	00r	.
8F#\	.	.	8dd\	.	8dd\	.	.	.
8C#\	.	.	8e/	.	8e/	.	.	.
8AA\J	.	.	8ee\J	.	8ee\J	.	.	.
!LO:TX:a:t=P:problem:mixed beam	!	!	!LO:TX:a:t=P:problem:mixed beam	!	!LO:TX:a:t=P:problem:mixed beam	!	!	!
8DD/L	.	.	8f#/L	.	8f#/L	.	.	.
8D\	.	.	8ff#\	.	8ff#\	.	.	.
8EE/	.	.	8g/	.	8g/	.	.	.
8E\J	.	.	8gg\J	.	8gg\J	.	.	.
=2	=2	=2	=2	=2	=2	=2	=2	=2
!LO:TX:a:t=P:problem:mixed beam	!	!	!LO:TX:a:t=P:problem:mixed beam	!	!LO:TX:a:t=P:problem:mixed beam	!	!	!
8FF#/L	.	.	8a/L	.	8a/L	.	.	.
8F#\	.	.	8aa\	.	8aa\	.	.	.
8GG/	.	.	8b/	.	8b/	.	.	.
8G\J	.	.	8bb\J	.	8bb\J	.	.	.
4A\	.	.	16cc#\LL	.	16cc#\LL	.	.	.
.	.	.	16b\J	.	16b\J	.	.	.
.	.	.	8a\J	.	8a\J	.	.	.
4r	.	.	4r	.	4r	.	.	.
=3	=3	=3	=3	=3	=3	=3	=3	=3
!	!	!	!LO:TX:a:t=P:problem:mixed beam	!	!LO:TX:a:t=P:problem:mixed beam	!	!	!
8D\L	.	.	16d/LL	.	16d/LL	.	.	.
.	.	.	16dd\	.	16dd\	.	.	.
8F#\	.	.	16cc#\	.	16cc#\	.	.	.
.	.	.	16dd\JJ	.	16dd\JJ	.	.	.
!	!	!	!LO:TX:a:t=P:problem:mixed beam	!	!LO:TX:a:t=P:problem:mixed beam	!	!	!
8C#\	.	.	16e/LL	.	16e/LL	.	.	.
.	.	.	16ee\	.	16ee\	.	.	.
8AA\J	.	.	16dd\	.	16dd\	.	.	.
.	.	.	16ee\JJ	.	16ee\JJ	.	.	.
!LO:TX:a:t=P:problem:mixed beam	!	!	!LO:TX:a:t=P:problem:mixed beam	!	!LO:TX:a:t=P:problem:mixed beam	!	!	!
8DD/L	.	.	16f#/LL	.	16f#/LL	.	.	.
.	.	.	16ff#\	.	16ff#\	.	.	.
8D\	.	.	16ee\	.	16ee\	.	.	.
.	.	.	16ff#\JJ	.	16ff#\JJ	.	.	.
!	!	!	!LO:TX:a:t=P:problem:mixed beam	!	!LO:TX:a:t=P:problem:mixed beam	!	!	!
8EE/	.	.	16g/LL	.	16g/LL	.	.	.
.	.	.	16gg\	.	16gg\	.	.	.
8E\J	.	.	16ff#\	.	16ff#\	.	.	.
.	.	.	16gg\JJ	.	16gg\JJ	.	.	.
=4	=4	=4	=4	=4	=4	=4	=4	=4
!LO:TX:a:t=P:problem:mixed beam	!	!	!LO:TX:a:t=P:problem:mixed beam	!	!LO:TX:a:t=P:problem:mixed beam	!	!	!
8FF#/L	.	.	16a/LL	.	16a/LL	.	.	.
.	.	.	16aa\	.	16aa\	.	.	.
8F#\	.	.	16gg\	.	16gg\	.	.	.
.	.	.	16aa\JJ	.	16aa\JJ	.	.	.
!	!	!	!LO:TX:a:t=P:problem:mixed beam	!	!LO:TX:a:t=P:problem:mixed beam	!	!	!
8GG/	.	.	16b/LL	.	16b/LL	.	.	.
.	.	.	16bb\	.	16bb\	.	.	.
8G\J	.	.	16aa\	.	16aa\	.	.	.
.	.	.	16bb\JJ	.	16bb\JJ	.	.	.
4A\	.	.	16cc#\LL	.	16cc#\LL	.	.	.
.	.	.	16b\J	.	16b\J	.	.	.
.	.	.	8a\J	.	8a\J	.	.	.
4r	.	.	4r	.	4r	.	.	.
=5	=5	=5	=5	=5	=5	=5	=5	=5
16d\LL|	.	.	16dd\LL|	.	16dd\LL|	.	00r	.
16c#\|	.	.	16cc#\|	.	16cc#\|	.	.	.
16B\|	.	.	16b\|	.	16b\|	.	.	.
16A\JJ|	.	.	16a\JJ|	.	16a\JJ|	.	.	.
16d\LL|	.	.	16dd\LL|	.	16dd\LL|	.	.	.
16c#\|	.	.	16cc#\|	.	16cc#\|	.	.	.
16B\|	.	.	16b\|	.	16b\|	.	.	.
16A\JJ|	.	.	16a\JJ|	.	16a\JJ|	.	.	.
16d\LL|	.	.	16dd\LL|	.	16dd\LL|	.	.	.
16c#\|	.	.	16cc#\|	.	16cc#\|	.	.	.
16B\|	.	.	16b\|	.	16b\|	.	.	.
16A\JJ|	.	.	16a\JJ|	.	16a\JJ|	.	.	.
16d\LL|	.	.	16dd\LL|	.	16dd\LL|	.	.	.
16c#\|	.	.	16cc#\|	.	16cc#\|	.	.	.
16B\|	.	.	16b\|	.	16b\|	.	.	.
16A\JJ|	.	.	16a\JJ|	.	16a\JJ|	.	.	.
!LO:LB:g=original	!	!	!	!	!	!	!	!
=6	=6	=6	=6	=6	=6	=6	=6	=6
8G\L|	.	.	8b/L|	.	8b/L	.	.	.
8F#\|	.	.	8a/|	.	8a/	.	.	.
8E\|	.	.	8g/|	.	8g/	.	.	.
8D\J|	.	.	8f#/J|	.	8f#/J	.	.	.
!LO:TX:a:t=P:problem:mixed beam	!	!	!	!	!	!	!	!
8E\L|	.	.	8e/L	.	8e/L	.	.	.
8AA/J|	.	.	8A/J	.	8A/J	.	.	.
4r	.	.	16r	.	16r	.	.	.
.	.	.	16A/LL	.	16A/LL	.	.	.
.	.	.	16B/	.	16B/	.	.	.
.	.	.	16A/JJ	.	16A/JJ	.	.	.
=7	=7	=7	=7	=7	=7	=7	=7	=7
8D\L	.	.	16d/LL	.	16d/LL	.	.	.
.	.	.	16A/	.	16A/	.	.	.
8F#\	.	.	16B/	.	16B/	.	.	.
.	.	.	16A/JJ	.	16A/JJ	.	.	.
8C#\	.	.	16f#/LL	.	16e/LL	.	.	.
.	.	.	16A/	.	16A/	.	.	.
8AA\J	.	.	16B/	.	16B/	.	.	.
.	.	.	16A/JJ	.	16A/JJ	.	.	.
!LO:TX:a:t=P:problem:mixed beam	!	!	!	!	!	!	!	!
8DD/L	.	.	16f#/LL	.	16f#/LL	.	.	.
.	.	.	16A/	.	16A/	.	.	.
8D\	.	.	16B/	.	16B/	.	.	.
.	.	.	16A/JJ	.	16A/JJ	.	.	.
8EE/	.	.	16g/LL	.	16g/LL	.	.	.
.	.	.	16A/	.	16A/	.	.	.
8E\J	.	.	16B/	.	16B/	.	.	.
.	.	.	16A/JJ	.	16A/JJ	.	.	.
!	!	!	!	!	!LO:LB:g=original	!	!	!
=8	=8	=8	=8	=8	=8	=8	=8	=8
!LO:TX:a:t=P:problem:mixed beam	!	!	!	!	!	!	!	!
8FF#/L	.	.	16a/LL	.	16a/LL	.	.	.
.	.	.	16f#/	.	16f#/	.	.	.
8F#\	.	.	16e/	.	16e/	.	.	.
.	.	.	16d/JJ	.	16d/JJ	.	.	.
8G\	.	.	8b\L	.	8b\L	.	.	.
8E\J	.	.	8cc#\J	.	8cc#\J	.	.	.
8F#\L	.	.	16dd\LL|	.	16dd\LL|	.	.	.
.	.	.	(>16a\	.	(>16a\	.	.	.
8D\J	.	.	16b\	.	16b\	.	.	.
.	.	.	16a\JJ)	.	16a\JJ)	.	.	.
!	!	!	!LO:LB:g=original	!	!	!	!	!
8C#/L	.	.	16ee\LL|	.	16ee\LL|	.	.	.
.	.	.	(>16a\	.	(>16a\	.	.	.
8AA/J	.	.	16b\	.	16b\	.	.	.
.	.	.	16a\JJ)	.	16a\JJ)	.	.	.
=9	=9	=9	=9	=9	=9	=9	=9	=9
!LO:TX:a:t=P:problem:mixed beam	!	!	!	!	!	!	!	!
8DD/L	.	.	16ff#\LL|	.	16ff#\LL|	.	00r	.
.	.	.	(>16a\	.	(>16a\	.	.	.
8D\	.	.	16b\	.	16b\	.	.	.
.	.	.	16a\JJ)	.	16a\JJ)	.	.	.
8EE/	.	.	16gg\LL|	.	16gg\LL|	.	.	.
.	.	.	(>16a\	.	(>16a\	.	.	.
8E\J	.	.	16b\	.	16b\	.	.	.
.	.	.	16cc#\JJ)	.	16a\JJ)	.	.	.
8F#\L	.	.	16aa\LL	.	16aa\LL	.	.	.
.	.	.	16ff#\	.	16ff#\	.	.	.
8D\	.	.	16gg\	.	16gg\	.	.	.
.	.	.	16aa\JJ	.	16aa\JJ	.	.	.
8G\	.	.	16bb\LL	.	16bb\LL	.	.	.
.	.	.	16gg\	.	16gg\	.	.	.
8E\J	.	.	16aa\	.	16aa\	.	.	.
.	.	.	16bb\JJ	.	16bb\JJ	.	.	.
=10	=10	=10	=10	=10	=10	=10	=10	=10
8F#\L	.	.	16aa\LL	.	16aa\LL	.	.	.
.	.	.	16ff#\	.	16ff#\	.	.	.
8D\	.	.	16gg\	.	16gg\	.	.	.
.	.	.	16aa\JJ	.	16aa\JJ	.	.	.
8G\	.	.	16bb\LL	.	16bb\LL	.	.	.
.	.	.	16gg\	.	16gg\	.	.	.
8E\J	.	.	16aa\	.	16aa\	.	.	.
.	.	.	16bb\JJ	.	16bb\JJ	.	.	.
!LO:TX:a:t=P:problem:mixed beam	!	!	!LO:TX:a:t=P:problem:mixed beam	!	!LO:TX:a:t=P:problem:mixed beam	!	!	!
8A\L	.	.	8aa\L	.	8aa\L	.	.	.
8AA/J	.	.	8A/J	.	8A/J	.	.	.
8AA/L	.	.	8A/L	.	8A/L	.	.	.
16BB/L	.	.	16B/L	.	16B/L	.	.	.
16C#/JJ	.	.	16c#/JJ	.	16c#/JJ	.	.	.
=11	=11	=11	=11	=11	=11	=11	=11	=11
8D/L|	.	.	8d/L	.	8d/L	.	.	.
8AA/J|	.	.	8A/J	.	8A/J	.	.	.
8F#\L|	.	.	8f#/L	.	8f#/L	.	.	.
8D\J|	.	.	8d/J	.	8d/J	.	.	.
!LO:LB:g=original	!	!	!	!	!	!	!	!
8A\L|	.	.	8a/L	.	8a/L	.	.	.
8F#\|	.	.	8f#/J	.	8f#/J	.	.	.
8d\|	.	.	8dd\L	.	8dd\L	.	.	.
8A\J|	.	.	8a\J	.	8a\J	.	.	.
=12	=12	=12	=12	=12	=12	=12	=12	=12
*clefC4	*	*	*	*	*	*	*	*
*k[f#c#]	*	*	*	*	*	*	*	*
!LO:TX:a:t=P:problem:w źródle znaki przykluczowe zapisane za kluczem	!	!	!	!	!	!	!	!
8f#\L|	.	.	8ff#\L	.	8ff#\L	.	.	.
8d\|	.	.	8dd\J	.	8dd\J	.	.	.
8d\|	.	.	8dd\L	.	8dd\L	.	.	.
8A\J|	.	.	8a\J	.	8a\J	.	.	.
8f#\L|	.	.	8ff#\L	.	8ff#\L	.	.	.
8d\|	.	.	8dd\J	.	8dd\J	.	.	.
8d\|	.	.	8dd\L	.	8dd\L	.	.	.
8A\J|	.	.	8a\J	.	8a\J	.	.	.
=13	=13	=13	=13	=13	=13	=13	=13	=13
8f#\L|	.	.	16dd\LL	.	16dd\LL	.	0r	.
.	.	.	16a\	.	16a\	.	.	.
8A\|	.	.	16a\	.	16a\	.	.	.
.	.	.	16a\JJ	.	16a\JJ	.	.	.
8c#\|	.	.	16ee\LL	.	16ee\LL	.	.	.
.	.	.	16a\	.	16a\	.	.	.
8A\J|	.	.	16a\	.	16a\	.	.	.
.	.	.	16a\JJ	.	16a\JJ	.	.	.
8d\L|	.	.	16ff#\LL	.	16ff#\LL	.	.	.
.	.	.	16a\	.	16a\	.	.	.
8A\|	.	.	16a\	.	16a\	.	.	.
.	.	.	16a\JJ	.	16a\JJ	.	.	.
8c#\|	.	.	16ee\LL	.	16ee\LL	.	.	.
.	.	.	16a\	.	16a\	.	.	.
8A\J|	.	.	16a\	.	16a\	.	.	.
.	.	.	16a\JJ	.	16a\JJ	.	.	.
=14	=14	=14	=14	=14	=14	=14	=14	=14
8f#\L|	.	.	16dd\LL	.	16dd\LL	.	.	.
.	.	.	16a\	.	16a\	.	.	.
8A\|	.	.	16a\	.	16a\	.	.	.
.	.	.	16a\JJ	.	16a\JJ	.	.	.
8c#\|	.	.	16ee\LL	.	16ee\LL	.	.	.
.	.	.	16a\	.	16a\	.	.	.
8A\J|	.	.	16a\	.	16a\	.	.	.
.	.	.	16a\JJ	.	16a\JJ	.	.	.
8d\L|	.	.	16ff#\LL	.	16ff#\LL	.	.	.
.	.	.	16a\	.	16a\	.	.	.
8A\|	.	.	16a\	.	16a\	.	.	.
.	.	.	16a\JJ	.	16a\JJ	.	.	.
8e\|	.	.	16gg\LL	.	16gg\LL	.	.	.
.	.	.	16a\	.	16a\	.	.	.
8A\J|	.	.	16a\	.	16a\	.	.	.
.	.	.	16a\JJ	.	16a\JJ	.	.	.
=15	=15	=15	=15	=15	=15	=15	=15	=15
4.f#\	.	.	8aa\L	.	8aa\L	.	1r	.
.	.	.	16gg\L	.	16gg\L	.	.	.
.	.	.	16ff#\JJ	.	16ff#\JJ	.	.	.
.	.	.	16ee\LL	.	16ee\LL	.	.	.
.	.	.	16dd\	.	16dd\	.	.	.
*clefF4	*	*	*	*	*	*	*	*
*k[f#c#]	*	*	*	*	*	*	*	*
!LO:TX:a:t=P:problem:w źródle za kluczem zapisane znaki przykluczowe F# i C#	!	!	!	!	!	!	!	!
16F#\LL	.	X 6	16cc#\	.	16cc#\	.	.	.
16G\JJ	.	.	16b\JJ	.	16b\JJ	.	.	.
8A\L	.	.	16a\LL	.	16a\LL	.	.	.
.	.	.	16cc#\	.	16cc#\	.	.	.
8D\J	.	.	16dd\	.	16dd\	.	.	.
.	.	.	16f#\JJ	.	16f#\JJ	.	.	.
!LO:TX:a:t=P:problem:mixed beam	!	!	!LO:TX:a:t=P:problem:mixed beam	!	!LO:TX:a:t=P:problem:mixed beam	!	!	!
8A\L	.	X 4	8A/L	.	8A/L	.	.	.
8AA/J	.	X 3	8cc#\J	.	8cc#\J	.	.	.
=16	=16	=16	=16	=16	=16	=16	=16	=16
4D/	.	.	4d/	.	4d/	.	4dd\	Tur-
4r	.	.	4r	.	4r	.	4dd\	-ba
!	!	!	!	!	!LO:LB:g=original	!	!	!
!	!	!	!	!	!	!LO:DY:b:t=piano	!	!
16r	.	.	16r	.	16r	p	4dd\	rus-
16d\LL|	.	.	16dd/LL	.	16dd/LL	.	.	.
16A\|	.	.	16a/	.	16a/	.	.	.
16F#\JJ|	.	.	16f#/JJ	.	16f#/JJ	.	.	.
!	!	!	!	!	!	!	!LO:N:vis=8.	!
4D/|	.	.	4d/	.	4d/	.	8d/	-ti-
.	.	.	.	.	.	.	8dd\	-ca
!LO:LB:g=original	!	!	!LO:LB:g=original	!	!	!	!	!
=17	=17	=17	=17	=17	=17	=17	=17	=17
16r	.	.	16r	.	16r	.	4dd\	men-
16d\LL|	.	.	16dd/LL	.	16dd/LL	.	.	.
16A\|	.	.	16a/	.	16a/	.	.	.
16F#\JJ|	.	.	16f#/JJ	.	16f#/JJ	.	.	.
4D/|	.	.	4d/	.	4d/	.	8d/	-te
.	.	.	.	.	.	.	8ff#\	ju-
16r	.	.	16r	.	16r	.	4ff#\	-cun-
16d\LL|	.	.	16dd/LL	.	16dd/LL	.	.	.
16A\|	.	.	16a/	.	16a/	.	.	.
16F#\JJ	.	.	16f#/JJ	.	16f#/JJ	.	.	.
4D/	.	.	4d/	.	4d/	.	4dd\	-da
=18	=18	=18	=18	=18	=18	=18	=18	=18
8D\L	.	.	1r	.	1r	.	4dd\	huc
8F#\	.	.	.	.	.	.	.	.
8D\	.	.	.	.	.	.	4ee\	huc
8AA\J	.	.	.	.	.	.	.	.
8D/L	.	.	.	.	.	.	8ff#\L	pro-
8C#/	.	.	.	.	.	.	(>16ee\L	.
!	!	!	!	!	!	!	!LO:N:vis=16.	!
.	.	.	.	.	.	.	16ff#\JJ)	.
8BB/	.	.	.	.	.	.	8gg\	.
8GG/J	.	.	.	.	.	.	8ff#\	-pe-
=19	=19	=19	=19	=19	=19	=19	=19	=19
16r	.	.	16r	.	16r	.	8ee\	-ra-
16A\LL|	.	.	16a/LL|	.	16a/LL|	.	.	.
16G#X\|	.	.	16g#X/|	.	16g#X/|	.	8a\	-to.
16F#\JJ|	.	.	16f#/JJ|	.	16f#/JJ|	.	.	.
16E\LL|	.	.	16e/LL|	.	16e/LL|	.	4r	.
16D\|	.	.	16d/|	.	16d/|	.	.	.
16C#\|	.	.	16c#/|	.	16c#/|	.	.	.
16BB\JJ|	.	.	16B/JJ|	.	16B/JJ|	.	.	.
4AA/	.	.	4A/|	.	4A/|	.	4r	.
4r	.	.	4r	.	4r	.	8ee\	Sal-
.	.	.	.	.	.	.	8ee\	-va-
=20	=20	=20	=20	=20	=20	=20	=20	=20
16r	.	.	16r	.	16r	.	(>16ee\LL	-to-
16A\LL|	.	.	16a/LL|	.	16a/LL|	.	16dd\JJ)	.
16G#X\|	.	.	16g#X/|	.	16g#X/|	.	8cc#\	-ri
16F#\JJ|	.	.	16f#/JJ|	.	16f#/JJ|	.	.	.
16E\LL|	.	.	16e/LL|	.	16e/LL|	.	4r	.
16D\|	.	.	16d/|	.	16d/|	.	.	.
16C#\|	.	.	16c#/|	.	16c#/|	.	.	.
16BB\JJ|	.	.	16B/JJ|	.	16B/JJ|	.	.	.
!	!	!	!	!	!	!	!LO:LB:g=original	!
4AA/	.	.	4A/|	.	4A/|	.	4r	.
4r	.	.	4r	.	4r	.	8cc#\	Lau-
.	.	.	.	.	.	.	8a\	-des
=21	=21	=21	=21	=21	=21	=21	=21	=21
16r	.	.	16r	.	16r	.	8ee\	da-
16A\LL|	.	.	16a/LL|	.	16a/LL|	.	.	.
16G#X\|	.	.	16g#X/|	.	16g#X/|	.	8cc#\	-to
16F#\JJ|	.	.	16f#/JJ|	.	16f#/JJ|	.	.	.
16E\LL|	.	.	16e/LL|	.	16e/LL|	.	4r	.
16D\|	.	.	16d/|	.	16d/|	.	.	.
16C#\|	.	.	16c#/|	.	16c#/|	.	.	.
16BB\JJ|	.	.	16B/JJ|	.	16B/JJ|	.	.	.
4AA/	.	.	4A/|	.	4A/|	.	4r	.
!LO:LB:g=original	!	!	!	!	!	!	!	!
*clefC4	*	*	*	*	*	*	*	*
*k[f#c#]	*	*	*	*	*	*	*	*
!LO:TX:a:t=P:problem:w źródle za kluczem zapisane znaki przykluczowe f# i c#	!	!	!	!	!	!	!	!
4c#\	.	.	[<4ee\	.	8aa\L	.	[<4ee\	a-
.	.	.	.	.	8gg\J	.	.	.
=22	=22	=22	=22	=22	=22	=22	=22	=22
!	!	!	!	!	!LO:TX:a:t=P:problem:mixed beam	!	!	!
8d\L	.	X 7	4ee\]	.	8ff#\L	.	16ee\LL]	.
.	.	.	.	.	.	.	16cc#\	-do-
8c#\	.	.	.	.	8d/J	.	16dd\	-ra-
.	.	.	.	.	.	.	16ee\JJ	.
*	*	*	*2\right	*	*	*	*	*
8d\	.	X 6	2dd\	.	4ff#\	.	[>4dd\	.
8B\J	.	.	.	.	.	.	.	.
!	!	!	!	!	!LO:TX:a:t=P:problem:mixed beam	!	!	!
8c#\L	.	X 7	.	.	8ee\L	.	16dd\LL]	.
.	.	.	.	.	.	.	16b\	.
8B\	.	.	.	.	8c#/J	.	16cc#\	.
.	.	.	.	.	.	.	16dd\JJ	.
8c#\	.	X 6	[<4cc#\	.	4ee\	.	[<4cc#\	.
8A\J	.	.	.	.	.	.	.	.
=23	=23	=23	=23	=23	=23	=23	=23	=23
!	!	!	!	!	!LO:TX:a:t=P:problem:mixed beam	!	!	!
8B\L	.	X 7	4cc#\]	.	8dd\L	.	16cc#\LL]	.
.	.	.	.	.	.	.	16a\	.
8A\	.	.	.	.	8B/J	.	16b\	.
.	.	.	.	.	.	.	16cc#\JJ	.
8B\	.	X 6	2b/	.	4dd\	.	[>4b\	.
8G#X\J	.	.	.	.	.	.	.	.
!	!	!	!	!	!LO:TX:a:t=P:problem:mixed beam	!	!	!
8A/L	.	X 7	.	.	8cc#\L	.	16b\LL]	.
.	.	.	.	.	.	.	16g#X\	.
8G#X/	.	.	.	.	8c#/J	.	16a\	.
.	.	.	.	.	.	.	16b\JJ	.
8A/	.	X 6	[<4a/	.	4cc#\	.	[<4a\	.
8F#/J	.	.	.	.	.	.	.	.
=24	=24	=24	=24	=24	=24	=24	=24	=24
!	!	!	!	!	!LO:TX:a:t=P:problem:mixed beam	!	!	!
8G#X/L	.	X 7	4a/]	.	8b\L	.	16a\LL]	.
.	.	.	.	.	.	.	16f#\	.
8F#/	.	.	.	.	8B/J	.	16g#X\	.
.	.	.	.	.	.	.	16a\JJ	.
!	!	!	!LO:SIC:s=2g#	!	!	!	!	!
8G#/	.	X 6	2g/	.	4b\	.	[<4g#/	.
8E/J	.	.	.	.	.	.	.	.
8F#/L	.	X 7	.	.	8a\L	.	16g#/LL]	.
.	.	.	.	.	.	.	16e/	.
8E/	.	.	.	.	8A/J	.	16f#/	.
.	.	.	.	.	.	.	16g#/JJ	.
8F#/	.	X 6	4f#/	.	4a/	.	4f#/	.
8D/J	.	.	.	.	.	.	.	.
=25	=25	=25	=25	=25	=25	=25	=25	=25
!	!	!	!	!	!LO:TX:a:t=P:problem:mixed beam	!	!	!
8E/L	.	.	4.e/	.	16g#X/LL	.	8e/	-to
.	.	.	.	.	16e/	.	.	.
8G#X/	.	X 6	.	.	16ee\	.	(>16ee\LL	a-
.	.	.	.	.	16dd\JJ	.	16dd\JJ	.
8A/	.	.	.	.	16cc#\LL	.	8cc#\)	.
.	.	.	.	.	16a\J	.	.	.
8D/J	.	6 5	8b/	.	8dd\J	.	8a\	-do-
2E/	.	X 4	4a/	.	4cc#\	.	2e/	-ra-
.	.	X 3	4g#X/	.	8.b/L	.	.	.
.	.	.	.	.	32aM/LL	.	.	.
.	.	.	.	.	32b/JJJ	.	.	.
=26	=26	=26	=26	=26	=26	=26	=26	=26
4A/	.	.	4a/	.	4a/	.	4A/	-to
4r	.	.	8r	.	8r	.	8r	.
!	!	!	!	!	!	!	!LO:LB:g=original	!
.	.	.	8aa\	.	8aa\	.	8aa\	et
*clefC3	*	*	*	*	*	*	*	*
*k[f#c#]	*	*	*	*	*	*	*	*
!LO:TX:a:t=P:problem:w źródle za kluczem zapisane znaki przykluczowe f# i c#	!	!	!	!	!	!	!	!
4e\	.	.	8gg#X\L	.	8gg#X\L	.	(>8gg#X\L	Sal-
.	.	X 6	8ff#\	.	8ff#\	.	8ff#\J)	.
4g#X\	.	X 5	8ee\	.	8ee\	.	(>8ee\L	-va-
.	.	.	8dd\J	.	8dd\J	.	8dd\J)	.
!	!	!	!	!	!LO:LB:g=original	!	!	!
=27	=27	=27	=27	=27	=27	=27	=27	=27
4a\	.	.	8cc#\L	.	8cc#\L	.	(>8cc#\L	-to-
.	.	.	8b\	.	8b\	.	8b\J)	.
4r	.	.	8a\	.	8a\	.	(>8a\L	-ri
.	.	.	8g#X\J	.	8g#X\J	.	8g#X\J)	.
!LO:LB:g=original	!	!	!	!	!	!	!	!
4A/	.	.	8f#/L	.	8f#/L	.	(>8a\L	lau-
.	.	X 6	8e/	.	8e/	.	8g#X\J)	.
4c#/	.	X 5	8d/	.	8d/	.	(<8f#/L	-des
.	.	.	8c#/J	.	8c#/J	.	8e/J)	.
=28	=28	=28	=28	=28	=28	=28	=28	=28
4d\	.	.	4B/	.	4B/	.	(<8f#/L	Lau-
.	.	.	.	.	.	.	8g#X/J)	.
*clefF4	*	*	*	*	*	*	*	*
*k[f#c#]	*	*	*	*	*	*	*	*
!	!	!	!	!	!LO:TX:a:t=P:problem:mixed beam	!	!	!
!LO:TX:a:t=P:problem:w źródle za kluczem zapisane znaki przykluczowe F# i C#	!	!	!	!	!	!	!	!
4D\	.	.	8A/L	.	8A/L	.	(>8a\L	-des
*	*	*	*	*	*	*	*2\right	*
.	.	.	8a/J	.	8dd\J	.	8dd\J)	.
4E\	.	X 4	4a/	.	4cc#\	.	2ee\	da-
.	.	X 3	.	.	.	.	.	.
4EE/	.	.	4g#X/	.	4b\	.	.	.
!	!	!	!LO:LB:g=original	!	!	!	!	!
=29	=29	=29	=29	=29	=29	=29	=29	=29
4AA/	.	.	4a/	.	4a/	.	4a\	-to
4r	.	.	8r	.	8r	.	8r	.
.	.	.	8aa\	.	8aa\	.	8aa\	et
*clefC3	*	*	*	*	*	*	*	*
*k[f#c#]	*	*	*	*	*	*	*	*
!LO:TX:a:t=P:problem:w źródle za kluczem zapisane znaki przykluczowe f# i c#	!	!	!	!	!	!	!	!
4e\	.	.	8gg#X\L	.	8gg#X\L	.	(>8gg#X\L	Sal-
.	.	X 6	8ff#\	.	8ff#\	.	8ff#\J)	.
4g#X\	.	X 5	8ee\	.	8ee\	.	(>8ee\L	-va-
.	.	.	8dd\J	.	8dd\J	.	8dd\J)	.
=30	=30	=30	=30	=30	=30	=30	=30	=30
4a\	.	.	8cc#\L	.	8cc#\L	.	(>8cc#\L	-to-
.	.	.	8b\	.	8b\	.	8b\J)	.
4r	.	.	8a\	.	8a\	.	(>8a\L	-ri
.	.	.	8g#X\J	.	8g#X\J	.	8g#X\J)	.
4d\	.	.	8f#/L	.	8f#/L	.	(<8f#/L	Lau-
.	.	.	8e/	.	8e/	.	8e/J)	.
4r	.	.	8d/	.	8d/	.	(<8d/L	-des
.	.	.	8c#/J	.	8c#/J	.	8c#/J)	.
=31	=31	=31	=31	=31	=31	=31	=31	=31
*clefF4	*	*	*	*	*	*	*	*
4r	.	.	4B/	.	4B/	.	4d/	hunc
!	!	!	!	!	!LO:TX:a:t=P:problem:mixed beam	!	!	!
!LO:TX:a:t=P:problem:w źródle za kluczem zapisane znaki przykluczowe F# i C#	!	!	!	!	!	!	!	!
4D\	.	.	8A/L	.	8A/L	.	8d/	a-
.	.	.	8a/J	.	8dd\J	.	8d/	-do-
4E\	.	# 4	4a/	.	4cc#\	.	2e/	-ra-
.	.	X 5	.	.	.	.	.	.
4EE/	.	.	4g#X/	.	4b\	.	.	.
=32	=32	=32	=32	=32	=32	=32	=32	=32
4AA/	.	.	4a/	.	4a/	.	4f#\	-to
4D\	.	.	4f#/	.	4a/	.	8ff#\	a-
.	.	.	.	.	.	.	8ff#\	-do-
.	.	.	8qc#/	.	.	.	.	.
*	*	*reverse	*	*	*	*	*	*
!	!	!	!	!	!	!	!LO:LB:g=original	!
4E\	.	X 4#	2B/	.	4a/	.	2e/	-ra-
4EE/	.	X 3	.	.	4g#X/	.	.	.
!LO:LB:g=original	!	!	!	!	!	!	!	!
=33	=33	=33	=33	=33	=33	=33	=33	=33
!	!	!	!	!LO:DY:b:t=fort&colon;	!	!LO:DY:b:t=forte	!	!
8A\L	.	.	16A/LL	f	16A/LL	f	4A/	-to.
.	.	.	16a/	.	16a/	.	.	.
8c#\	.	.	16g#X/	.	16g#X/	.	.	.
.	.	.	16a/JJ	.	16a/JJ	.	.	.
8G#X\	.	X 6	16B/LL	.	16B/LL	.	4r	.
.	.	.	16b/	.	16b/	.	.	.
8E\J	.	.	16a/	.	16a/	.	.	.
.	.	.	16b/JJ	.	16b/JJ	.	.	.
!LO:TX:a:t=P:problem:mixed beam	!	!	!LO:TX:a:t=P:problem:mixed beam	!	!LO:TX:a:t=P:problem:mixed beam	!	!	!
8AA/L	.	.	16c#/LL	.	16c#/LL	.	2r	.
.	.	.	16cc#\	.	16cc#\	.	.	.
8A\	.	.	16b\	.	16b\	.	.	.
.	.	.	16cc#/JJ	.	16cc#\JJ	.	.	.
!	!	!	!LO:TX:a:t=P:problem:mixed beam	!	!LO:TX:a:t=P:problem:mixed beam	!	!	!
8BB/	.	.	16d/LL	.	16d/LL	.	.	.
.	.	.	16dd\	.	16dd\	.	.	.
8B\J	.	.	16cc#\	.	16cc#\	.	.	.
.	.	.	16dd\JJ	.	16dd\JJ	.	.	.
=34	=34	=34	=34	=34	=34	=34	=34	=34
!LO:TX:a:t=P:problem:mixed beam	!	!	!LO:TX:a:t=P:problem:mixed beam	!	!LO:TX:a:t=P:problem:mixed beam	!	!	!
8C#/L	.	.	16e/LL	.	16e/LL	.	00r	.
.	.	.	16ee\	.	16ee\	.	.	.
8c#\	.	.	16dd\	.	16dd\	.	.	.
.	.	.	16ee\JJ	.	16ee\JJ	.	.	.
!	!	!	!LO:TX:a:t=P:problem:mixed beam	!	!LO:TX:a:t=P:problem:mixed beam	!	!	!
8D/	.	.	16f#/LL	.	16f#/LL	.	.	.
.	.	.	16ff#\	.	16ff#\	.	.	.
8d\J	.	.	16ee\	.	16ee\	.	.	.
.	.	.	16ff#\JJ	.	16ff#\JJ	.	.	.
4E\	.	.	16g#X/LL	.	16g#X/LL	.	.	.
.	.	.	16f#/J	.	16f#/J	.	.	.
.	.	.	8e/J	.	8e/J	.	.	.
4r	.	.	4r	.	4r	.	.	.
=35	=35	=35	=35	=35	=35	=35	=35	=35
16A\LL|	.	.	16a/LL	.	16a/LL	.	.	.
16G#X\|	.	.	16g#X/	.	16g#X/	.	.	.
16F#\|	.	.	16f#/	.	16f#/	.	.	.
16E\JJ|	.	.	16e/JJ	.	16e/JJ	.	.	.
16A\LL|	.	.	16a/LL	.	16a/LL	.	.	.
16G#X\|	.	.	16g#X/	.	16g#X/	.	.	.
16F#\|	.	.	16f#/	.	16f#/	.	.	.
16E\JJ|	.	.	16e/JJ	.	16e/JJ	.	.	.
4G#\	.	.	8b/L	.	8b/L	.	.	.
.	.	.	8g#X/	.	8g#X/	.	.	.
4r	.	.	8f#/	.	8f#/	.	.	.
.	.	.	8e/J	.	8e/J	.	.	.
=36	=36	=36	=36	=36	=36	=36	=36	=36
8G#X\L	.	.	16b/LL	.	16b/LL	.	.	.
.	.	.	16g#X/	.	16g#X/	.	.	.
8E\	.	.	16f#/	.	16f#/	.	.	.
.	.	.	16e/JJ	.	16e/JJ	.	.	.
8G#\	.	.	16b/LL	.	16b/LL	.	.	.
.	.	.	16g#X/	.	16g#X/	.	.	.
8E\J	.	.	16f#/	.	16f#/	.	.	.
.	.	.	16e/JJ	.	16e/JJ	.	.	.
!	!	!	!	!	!LO:LB:g=original	!	!	!
4A\	.	.	8cc#/L	.	8cc#/L	.	.	.
.	.	.	8g#X/	.	8g#X/	.	.	.
4r	.	.	8f#/	.	8f#/	.	.	.
.	.	.	8e/J	.	8e/J	.	.	.
=37	=37	=37	=37	=37	=37	=37	=37	=37
8A\L	.	.	16cc#/LL	.	16cc#/LL	.	.	.
.	.	.	16g#X/	.	16g#X/	.	.	.
8E\	.	.	16f#/	.	16f#/	.	.	.
.	.	.	16e/JJ	.	16e/JJ	.	.	.
8A\	.	.	16cc#/LL	.	16cc#/LL	.	.	.
.	.	.	16g#X/	.	16g#X/	.	.	.
8E\J	.	.	16f#/	.	16f#/	.	.	.
.	.	.	16e/JJ	.	16e/JJ	.	.	.
4B\	.	.	8dd/L	.	8dd/L	.	.	.
.	.	.	8g#X/	.	8g#X/	.	.	.
4r	.	.	8f#/	.	8f#/	.	.	.
.	.	.	8e/J	.	8e/J	.	.	.
!	!	!	!LO:LB:g=original	!	!	!	!	!
=38	=38	=38	=38	=38	=38	=38	=38	=38
8B\L	.	.	16dd/LL	.	16dd/LL	.	0r	.
.	.	.	16g#X/	.	16g#X/	.	.	.
8E\	.	.	16f#/	.	16f#/	.	.	.
.	.	.	16e/JJ	.	16e/JJ	.	.	.
8B\	.	.	16dd/LL	.	16dd/LL	.	.	.
.	.	.	16g#X/	.	16g#X/	.	.	.
8E\J	.	.	16f#/	.	16f#/	.	.	.
.	.	.	16e/JJ	.	16e/JJ	.	.	.
8c#\L	.	.	8ee\L	.	8ee\L	.	.	.
8B\	.	.	8ee\	.	8ee\	.	.	.
8c#\	.	.	8ee\	.	8ee\	.	.	.
8A\J	.	.	8ee\J	.	8ee\J	.	.	.
=39	=39	=39	=39	=39	=39	=39	=39	=39
8d\L	.	.	8ff#\L	.	8ff#\L	.	.	.
8c#\	.	.	8ee\	.	8ee\	.	.	.
8d\	.	.	8ff#\	.	8ff#\	.	.	.
8B\J	.	.	8gg#X\J	.	8gg#X\J	.	.	.
4.c#\	.	.	8aa\L	.	8aa\L	.	.	.
.	.	.	16gg#X\L	.	16gg#X\L	.	.	.
.	.	.	16ff#\JJ	.	16ff#\JJ	.	.	.
.	.	.	16ee\LL	.	16ee\LL	.	.	.
.	.	.	16dd\	.	16dd\	.	.	.
16C#/LL	.	.	16cc#\	.	16cc#\	.	.	.
16D/JJ	.	.	16b\JJ	.	16b\JJ	.	.	.
=40	=40	=40	=40	=40	=40	=40	=40	=40
!LO:TX:a:t=P:problem:mixed beam	!	!	!	!	!	!	!	!
8E\L	.	.	16a\LL	.	16a\LL	.	1r	.
.	.	.	16cc#\	.	16cc#\	.	.	.
8AA\	.	.	16aa\	.	16aa\	.	.	.
.	.	.	16cc#\JJ	.	16cc#\JJ	.	.	.
!	!	!	!LO:TX:a:t=P:problem:mixed beam	!	!LO:TX:a:t=P:problem:mixed beam	!	!	!
8E\	.	.	8e/L	.	8e/L	.	.	.
8EE/J	.	.	8gg#X\J	.	8gg#X\J	.	.	.
!LO:LB:g=original	!	!	!	!	!	!	!	!
!LO:TX:a:t=P:problem:mixed beam	!	!	!	!	!	!	!	!
16AA/LL	.	.	16a/LL	.	16a/LL	.	.	.
16A\|	.	.	16a/	.	16a/	.	.	.
16G#X\|	.	.	16g#X/	.	16g#X/	.	.	.
16F#\JJ|	.	.	16f#/JJ	.	16f#/JJ	.	.	.
16E\LL|	.	.	16e/LL	.	16e/LL	.	.	.
16D\|	.	.	16d/	.	16d/	.	.	.
16C#\|	.	.	16c#/	.	16c#/	.	.	.
16BB\JJ|	.	.	16B/JJ	.	16B/JJ	.	.	.
=41	=41	=41	=41	=41	=41	=41	=41	=41
!LO:TX:a:t=P:problem:mixed beam	!	!	!	!	!	!	!	!
8AA/L|	.	.	4A/	.	4A/	.	2r	.
16A\L|	.	.	.	.	.	.	.	.
16G\JJ|	.	.	.	.	.	.	.	.
8F#\L|	.	.	4r	.	4r	.	.	.
8E\J|	.	.	.	.	.	.	.	.
4D\|	.	.	2r	.	2r	.	4dd\	Tur-
4r	.	.	.	.	.	.	4dd\	-ba
=42	=42	=42	=42	=42	=42	=42	=42	=42
*clefC4	*	*	*	*	*	*	*	*
*k[f#c#]	*	*	*	*	*	*	*	*
!LO:TX:a:t=P:problem:w źródle znaki przykluczowe zapisane za kluczem	!	!	!	!	!	!	!	!
!	!	!	!	!LO:DY:a:t=piano	!	!LO:DY:a:t=piano	!	!
8d\L|	.	.	8dd\L	p	8dd\L	p	4dd\	Rus-
8A\J|	.	.	8a\J	.	8a\J	.	.	.
8f#\L|	.	.	8ff#\L	.	8ff#\L	.	8d/	-ti-
8d\J|	.	.	8dd\J	.	8dd\J	.	8dd\	-ca
8d\L|	.	.	8dd\L	.	8dd\L	.	4dd\	men-
8A\J|	.	.	8a\J	.	8a\J	.	.	.
8f#\L|	.	.	8ff#\L	.	8ff#\L	.	8d/	-te
8d\J|	.	.	8dd\J	.	8dd\J	.	8ff#\	ju-
=43	=43	=43	=43	=43	=43	=43	=43	=43
8d\L|	.	.	8dd\L	.	8dd\L	.	4ff#\	-cun-
8A\|	.	.	8a\J	.	8a\J	.	.	.
8f#\|	.	.	8ff#\L	.	8ff#\L	.	4dd\	-da
8d\J|	.	.	8dd\J	.	8dd\J	.	.	.
8d\L|	.	.	8dd\L	.	8dd\L	.	2r	.
8A\|	.	.	8a\J	.	8a\J	.	.	.
8f#\|	.	.	8ff#\L	.	8ff#\L	.	.	.
8d\J|	.	.	8dd\J	.	8dd\J	.	.	.
=44	=44	=44	=44	=44	=44	=44	=44	=44
!	!	!	!	!LO:DY:a:t=forte	!	!LO:DY:a:t=forte.	!	!
4d\|	.	.	4dd\	f	4dd\	f	4dd\	Sal-
4r	.	.	4r	.	4r	.	4ee\	-va-
8f#\L|	.	.	16dd\LL	.	16dd\LL	.	4ff#\	-to-
.	.	.	16a\	.	16a\	.	.	.
8A\|	.	.	16a\	.	16a\	.	.	.
.	.	.	16a\JJ	.	16a\JJ	.	.	.
8c#\|	.	.	16ee\LL	.	16ee\LL	.	4ee\	-ri
.	.	.	16a\	.	16a\	.	.	.
8A\J|	.	.	16a\	.	16a\	.	.	.
.	.	.	16a\JJ	.	16a\JJ	.	.	.
=45	=45	=45	=45	=45	=45	=45	=45	=45
8d\L|	.	.	16ff#\LL	.	16ff#\LL	.	4dd\	Ne-
.	.	.	16a\	.	16a\	.	.	.
8A\|	.	.	16a\	.	16a\	.	.	.
.	.	.	16a\JJ	.	16a\JJ	.	.	.
8c#\|	.	.	16ee\LL	.	16ee\LL	.	4ee\	-o-
.	.	.	16a\	.	16a\	.	.	.
8A\J|	.	.	16a\	.	16a\	.	.	.
.	.	.	16a\JJ	.	16a\JJ	.	.	.
8f#\L|	.	.	16dd\LL	.	16dd\LL	.	4ff#\	-na-
.	.	.	16a\	.	16a\	.	.	.
8A\|	.	.	16a\	.	16a\	.	.	.
.	.	.	16a\JJ	.	16a\JJ	.	.	.
8c#\|	.	.	16ee\LL	.	16ee\LL	.	4ee\	-to
.	.	.	16a\	.	16a\	.	.	.
8A\J|	.	.	16a\	.	16a\	.	.	.
.	.	.	16a\JJ	.	16a\JJ	.	.	.
!	!	!	!	!	!LO:LB:g=original	!	!	!
=46	=46	=46	=46	=46	=46	=46	=46	=46
8f#\L|	.	.	16dd\LL	.	16dd\LL	.	4dd\	Lau-
.	.	.	16a\	.	16a\	.	.	.
8A\|	.	.	16a\	.	16a\	.	.	.
.	.	.	16a\JJ	.	16a\JJ	.	.	.
8c#\|	.	.	16ee\LL	.	16ee\LL	.	4ee\	-des
.	.	.	16a\	.	16a\	.	.	.
8A\J|	.	.	16a\	.	16a\	.	.	.
.	.	.	16a\JJ	.	16a\JJ	.	.	.
!	!	!	!LO:LB:g=original	!	!	!	!	!
8d\L	.	.	8ff#\L	.	8ff#\L	.	4ff#\	de-
16c#\L	.	.	16ee\L	.	16ee\L	.	.	.
16d\JJ	.	.	16ff#\JJ	.	16ff#\JJ	.	.	.
8c#\L	.	.	8ee\L	.	8ee\L	.	8ee\L	-can-
8d\J	.	.	8dd\J	.	8dd\J	.	8dd\J	.
*clefF4	*	*	*	*	*	*	*	*
!	!	!	!	!	!	!	!LO:LB:g=original	!
=47	=47	=47	=47	=47	=47	=47	=47	=47
!LO:TX:a:t=P:problem:w źródle za kluczem zapisane znaki przykluczowe F# i C#	!	!	!	!	!	!	!	!
16r	.	.	16cc#/LL	.	16cc#/LL	.	(>16cc#\LL	-ta-
16A\LL|	.	.	16a/	.	16a/	.	16b\JJ)	.
16G#X\|	.	.	16g#X/	.	16g#X/	.	8a\	-to
16F#\JJ|	.	.	16f#/JJ	.	16f#/JJ	.	.	.
16E\LL|	.	.	16e/LL	.	16e/LL	.	4r	.
16D\|	.	.	16d/	.	16d/	.	.	.
16C#\|	.	.	16c#/	.	16c#/	.	.	.
16BB\JJ|	.	.	16B/JJ	.	16B/JJ	.	.	.
!LO:LB:g=original	!	!	!	!	!	!	!	!
4AA/	.	.	4A/	.	4A/	.	4r	.
4r	.	.	4r	.	4r	.	8ee\	Sal-
.	.	.	.	.	.	.	8ee\	-va-
=48	=48	=48	=48	=48	=48	=48	=48	=48
16r	.	.	16r	.	16r	.	(>16ee\LL	-to-
16AA/LL|	.	.	16A/LL	.	16A/LL	.	16dd\JJ)	.
16BB/|	.	.	16B/	.	16B/	.	8cc#\	-ri
16C#/JJ|	.	.	16c#/JJ	.	16c#/JJ	.	.	.
16D\LL|	.	.	16d/LL	.	16d/LL	.	4r	.
16E\|	.	.	16e/	.	16e/	.	.	.
16F#\|	.	.	16f#/	.	16f#/	.	.	.
16G#X\JJ|	.	.	16g#X/JJ	.	16g#X/JJ	.	.	.
4A\	.	.	4a/	.	4a/	.	4r	.
4r	.	.	4r	.	4r	.	8cc#\	Ne-
.	.	.	.	.	.	.	8a\	-o-
=49	=49	=49	=49	=49	=49	=49	=49	=49
16r	.	.	16r	.	16r	.	8ee\	-na-
16A\LL|	.	.	16a/LL	.	16a/LL	.	.	.
16G#X\|	.	.	16g#X/	.	16g#X/	.	8cc#\	-to
16F#\JJ|	.	.	16f#/JJ	.	16f#/JJ	.	.	.
16E\LL|	.	.	16e/LL	.	16e/LL	.	4r	.
16D\|	.	.	16d/	.	16d/	.	.	.
16C#\|	.	.	16c#/	.	16c#/	.	.	.
16BB\JJ|	.	.	16B/JJ	.	16B/JJ	.	.	.
4AA/	.	.	4A/	.	4A/	.	8cc#\	Lau-
.	.	.	.	.	.	.	8a\	-des
4r	.	.	4r	.	4r	.	8ee\	da-
.	.	.	.	.	.	.	8cc#\	-to
=50	=50	=50	=50	=50	=50	=50	=50	=50
4AA/	.	.	2r	.	2r	.	8ee\	Lau-
.	.	.	.	.	.	.	8cc#\	-des
4A\	.	.	.	.	.	.	8ee\	De-
.	.	.	.	.	.	.	8cc#\	-o
16r	.	.	16r	.	16r	.	8ee\	Da-
16A\LL|	.	.	16a/LL	.	16a/LL	.	.	.
16G#X\|	.	.	16g#X/	.	16g#X/	.	8cc#\	-to
16F#\JJ|	.	.	16f#/JJ	.	16f#/JJ	.	.	.
16E\LL|	.	.	16e/LL	.	16e/LL	.	4r	.
16D\|	.	.	16d/	.	16d/	.	.	.
16C#\|	.	.	16c#/	.	16c#/	.	.	.
16BB\JJ|	.	.	16B/JJ	.	16B/JJ	.	.	.
=51	=51	=51	=51	=51	=51	=51	=51	=51
!LO:TX:a:i:t=alto.	!	!	!	!	!	!	!	!
4AA/	.	.	4A/	.	4A/	.	4r	.
*clefC3	*	*	*	*	*2\right	*	*	*
*k[f#c#]	*	*	*	*	*	*	*	*
!	!	!	!	!LO:DY:b:t=piano	!	!LO:DY:b:t=piano	!	!
!LO:TX:a:t=P:problem:w źródle za kluczem zapisane znaki przykluczowe f# i c#	!	!	!	!	!	!	!	!
4f#\	.	.	4a/	p	2aa\	p	4a\	hic
!	!	!	!	!	!	!	!LO:LB:g=original	!
8g\L	.	X 3	4.b\	.	.	.	4.b\	de-
8f#\	.	.	.	.	.	.	.	.
8g\	.	X 6	.	.	[<4gg\	.	.	.
8e\J	.	.	8cc#\	.	.	.	8cc#\	-can-
=52	=52	=52	=52	=52	=52	=52	=52	=52
8f#\L	.	.	8dd\L	.	4gg\]	.	8dd\L	-ta-
8e\	.	.	8ee\J	.	.	.	8ee\J	.
8f#\	.	X 5	4ff#\	.	2ff#\	.	4ff#\	.
8d\J	.	.	.	.	.	.	.	.
!	!	!	!LO:TX:a:t=P:problem:mixed beam	!	!	!	!	!
8e\L	.	X 9	8gg\L	.	.	.	16ff#\LL	.
.	.	.	.	.	.	.	16dd\	.
8d\	.	.	8e/J	.	.	.	16ee\	.
.	.	.	.	.	.	.	16ff#\JJ	.
8e\	.	X 5	4gg\	.	[<4ee\	.	16ee\LL	.
.	.	.	.	.	.	.	16ff#\	.
8c#\J	.	.	.	.	.	.	16ee\	.
.	.	.	.	.	.	.	16dd\JJ	.
=53	=53	=53	=53	=53	=53	=53	=53	=53
!	!	!	!LO:TX:a:t=P:problem:mixed beam	!	!	!	!	!
8d\L	.	X 9	8ff#\L	.	4ee\]	.	16ee\LL	.
.	.	.	.	.	.	.	16cc#\	.
8c#\	.	.	8d/J	.	.	.	16dd\	.
.	.	.	.	.	.	.	16ee\JJ	.
8d\	.	X 6	4ff#\	.	2dd\	.	16dd\LL	.
.	.	.	.	.	.	.	16ee\	.
8B\J	.	.	.	.	.	.	16dd\	.
.	.	.	.	.	.	.	16cc#\JJ	.
*clefC4	*	*	*	*	*	*	*	*
*k[f#c#]	*	*	*	*	*	*	*	*
!	!	!	!LO:TX:a:t=P:problem:mixed beam	!	!	!	!	!
!LO:TX:a:t=P:problem:w źródle za kluczem zapisane znaki przykluczowe f# i c#	!	!	!	!	!	!	!	!
!LO:LB:g=original	!	!	!	!	!	!	!	!
8c#\L	.	X 9	8ee\L	.	.	.	16dd\LL	.
.	.	.	.	.	.	.	16b\	.
8B\	.	.	8c#/J	.	.	.	16cc#\	.
.	.	.	.	.	.	.	16dd\JJ	.
8c#\	.	X 8	4ee\	.	[<4cc#\	.	16cc#\LL	.
.	.	.	.	.	.	.	16dd\	.
8A\J	.	.	.	.	.	.	16cc#\	.
.	.	.	.	.	.	.	16b\JJ	.
=54	=54	=54	=54	=54	=54	=54	=54	=54
!	!	!	!LO:TX:a:t=P:problem:mixed beam	!	!	!	!	!
8B\L	.	X 9	8dd\L	.	4cc#\]	.	16cc#\LL	.
.	.	.	.	.	.	.	16a\	.
8A\	.	.	8B/J	.	.	.	16b\	.
.	.	.	.	.	.	.	16cc#\JJ	.
8B\	.	X 8	4dd\	.	2b/	.	16b\LL	.
.	.	.	.	.	.	.	16cc#\	.
8G\J	.	.	.	.	.	.	16b\	.
.	.	.	.	.	.	.	16a\JJ	.
!	!	!	!LO:TX:a:t=P:problem:mixed beam	!	!	!	!	!
8A/L	.	X 9	8cc#\L	.	.	.	16b\LL	.
.	.	.	.	.	.	.	16g\	.
8G/	.	.	8A/J	.	.	.	16a\	.
.	.	.	.	.	.	.	16b\JJ	.
8A/	.	X 8	4cc#\	.	[<4a/	.	16a\LL	.
.	.	.	.	.	.	.	16b\	.
8F#/J	.	.	.	.	.	.	16a\	.
.	.	.	.	.	.	.	16g\JJ	.
=55	=55	=55	=55	=55	=55	=55	=55	=55
!	!	!	!LO:TX:a:t=P:problem:mixed beam	!	!	!	!	!
8G/L	.	X 9	8b\L	.	4a/]	.	16a\LL	.
.	.	.	.	.	.	.	16f#\	.
8F#/	.	.	8G/J	.	.	.	16g\	.
.	.	.	.	.	.	.	16a\JJ	.
8G/	.	X 8	4b\	.	2g/	.	16g\LL	.
.	.	.	.	.	.	.	16a\	.
8E/J	.	.	.	.	.	.	16g\	.
.	.	.	.	.	.	.	16f#\JJ	.
8F#/L	.	X 9	2a/	.	.	.	16g/LL	.
.	.	.	.	.	.	.	16e/	.
8E/	.	.	.	.	.	.	16f#/	.
.	.	.	.	.	.	.	16g/JJ	.
8F#/	.	X 8	.	.	4f#/	.	16f#/LL	.
.	.	.	.	.	.	.	16g/	.
8D/J	.	.	.	.	.	.	16f#/	.
.	.	.	.	.	.	.	16e/JJ	.
!	!	!	!LO:LB:g=original	!	!LO:LB:g=original	!	!	!
=56	=56	=56	=56	=56	=56	=56	=56	=56
8E/L	.	.	2g/	.	2e/	.	16f#/LL	.
.	.	.	.	.	.	.	16d/	.
8G/J	.	.	.	.	.	.	16e/	.
.	.	.	.	.	.	.	16f#/JJ	.
4A/	.	.	.	.	.	.	16e/LL	.
.	.	.	.	.	.	.	16g/	.
.	.	.	.	.	.	.	16f#/	.
.	.	.	.	.	.	.	16e/JJ	.
*clefF4	*	*	*	*	*	*	*	*
!LO:TX:a:t=P:problem:w źródle za kluczem zapisane znaki przykluczowe F# i C#	!	!	!	!	!	!	!	!
4D/	.	.	8f#/L	.	8d/L	.	8f#/	.
.	.	.	8a/	.	8a/J	.	8a\	-to
!	!	!	!	!	!	!	!LO:LB:g=original	!
4B\	.	.	8f#/	.	8dd\L	.	8dd\	de-
.	.	.	8g/J	.	8g\J	.	8g\	-can-
=57	=57	=57	=57	=57	=57	=57	=57	=57
.	.	.	8qf#/	.	.	.	.	.
4A\	.	X 4	2e/	.	2a/	.	2a\	-ta-
4AA/	.	X 3	.	.	.	.	.	.
4D/	.	.	4d/	.	4d/	.	4d/	-to
4r	.	.	8r	.	8r	.	8r	.
.	.	.	8aa\	.	8aa\	.	8aa\	et
=58	=58	=58	=58	=58	=58	=58	=58	=58
*clefC3	*	*	*	*	*	*	*	*
*k[f#c#]	*	*	*	*	*	*	*	*
!LO:TX:a:t=P:problem:w źródle znaki przykluczowe zapisane za kluczem	!	!	!	!	!	!	!	!
4e\	.	.	8gg\L	.	8gg\L	.	(>8gg\L	Sal-
.	.	.	8ff#\	.	8ff#\	.	8ff#\J)	.
4g\	.	X 6	8ee\	.	8ee\	.	(>8ee\L	-va-
.	.	X 5	8dd\J	.	8dd\J	.	8dd\J)	.
4a\	.	.	8cc#\L	.	8cc#\L	.	(>8cc#\L	-to-
.	.	.	8b\	.	8b\	.	8b\J)	.
4r	.	.	8a\	.	8a\	.	(>8a\L	-ri
.	.	.	8g\J	.	8g\J	.	8g\J)	.
*clefC4	*	*	*	*	*	*	*	*
=59-	=59	=59-	=59	=59	=59	=59	=59	=59
*k[f#c#]	*	*	*	*	*	*	*	*
4A\	.	.	8a/L	.	8a/L	.	(>8a\L	ne-
.	.	.	8g/	.	8g/	.	8g\J)	.
4c#\	.	X 6	8f#/	.	8f#/	.	(<8f#/L	-o-
.	.	X 5	8e/J	.	8e/J	.	8e/J)	.
4d\	.	.	8f#/L	.	8f#/L	.	8f#/	-na-
.	.	.	8a/J	.	8a/J	.	8a\	-to
*clefF4	*	*	*	*	*	*	*	*
!LO:TX:a:t=P:problem:w źródle za kluczem zapisane znaki przykluczowe F# i C#	!	!	!	!	!	!	!	!
4G\	.	.	8dd\L	.	8dd\L	.	8dd\	de-
.	.	.	8g\J	.	8g\J	.	8g\	-can-
!LO:LB:g=original	!	!	!	!	!	!	!	!
=60	=60	=60	=60	=60	=60	=60	=60	=60
.	.	.	8qf#/	.	8qf#/	.	.	.
4A\	.	X 4	2e/	.	2e/	.	2a\	-ta-
4AA/	.	X 3	.	.	.	.	.	.
4D/	.	.	4d/	.	4d/	.	4d/	-to
4r	.	.	8r	.	8r	.	8r	.
.	.	.	8aa\	.	8aa\	.	8aa\	et
=61	=61	=61	=61	=61	=61	=61	=61	=61
*clefC3	*	*	*	*	*	*	*	*
*k[f#c#]	*	*	*	*	*	*	*	*
!LO:TX:a:t=P:problem:w źródle znaki przykluczowe zapisane za kluczem	!	!	!	!	!	!	!	!
4e\	.	X 6	8gg\L	.	8gg\L	.	(>8gg\L	Sal-
.	.	.	8ff#\	.	8ff#\	.	8ff#\J)	.
4g\	.	X 5	8ee\	.	8ee\	.	(>8ee\L	-va-
.	.	.	8dd\J	.	8dd\J	.	8dd\J)	.
4a\	.	.	8cc#\L	.	8cc#\L	.	(>8cc#\L	-to-
.	.	.	8b\	.	8b\	.	8b\)J	.
4r	.	.	8a\	.	8a\	.	(>8a\L	-ri
.	.	.	8g\J	.	8g\J	.	8g\J)	.
=62	=62	=62	=62	=62	=62	=62	=62	=62
*clefC4	*	*	*	*	*	*	*	*
*k[f#c#]	*	*	*	*	*	*	*	*
!LO:TX:a:t=P:problem:w źródle znaki przykluczowe zapisane za kluczem	!	!	!	!	!	!	!	!
4A\	.	.	8a/L	.	8a/L	.	(>8a\L	de-
.	.	X 6	8g/	.	8g/	.	8g\J)	.
4c#\	.	X 5	8f#/	.	8f#/	.	(<8f#/L	-can-
.	.	.	8e/J	.	8e/J	.	8e/J)	.
!	!	!	!	!	!	!	!LO:LB:g=original	!
4d\	.	.	8f#/L	.	8f#/L	.	8f#/	-ta-
.	.	.	8a/J	.	8a/J	.	8a\	-te
*clefF4	*	*	*	*	*	*	*	*
*k[f#c#]	*	*	*	*	*	*	*	*
!LO:TX:a:t=P:problem:w źródle za kluczem zapisane znaki przykluczowe F# i C#	!	!	!	!	!	!	!	!
4G\	.	.	8dd\L	.	8dd\L	.	8dd\	de-
.	.	.	8g\J	.	8g\J	.	8g\	-can-
=63	=63	=63	=63	=63	=63	=63	=63	=63
.	.	.	8qf#/	.	8qf#/	.	.	.
4A\	.	X 4	2e/	.	2e/	.	2a\	-ta-
4AA/	.	X 3	.	.	.	.	.	.
4D/	.	.	4d/	.	4d/	.	4d/	-to
4d\	.	.	4dd\	.	4dd\	.	4dd\	Lau-
=64	=64	=64	=64	=64	=64	=64	=64	=64
*2\right	*	*	*	*	*	*	*	*
2A\|	.	.	2a/	.	2a/	.	2a\	-des
4D\|	.	.	4d/	.	4d/	.	4d/	de-
4f#\|	.	.	4ff#\	.	4ff#\	.	4ff#\	-can-
=65	=65	=65	=65	=65	=65	=65	=65	=65
!	!LO:DY:b:t=fort&colon;	!	!	!	!	!LO:DY:a:t=forte.	!	!
2A\|	f	.	2a/	.	2a/	f	2a\	-ta-
8D\L	.	.	16aa\LL	.	16aa\LL	.	4d/	-to.
.	.	.	16ff#\	.	16ff#\	.	.	.
8F#\	.	.	16gg\	.	16gg\	.	.	.
.	.	.	16aa\JJ	.	16aa\JJ	.	.	.
8G\	.	.	16bb\LL	.	16bb\LL	.	4r	.
.	.	.	16gg\	.	16gg\	.	.	.
8E\J	.	.	16aa\	.	16aa\	.	.	.
.	.	.	16bb\JJ	.	16bb\JJ	.	.	.
!	!	!	!LO:LB:g=original	!	!LO:LB:g=original	!	!	!
=66	=66	=66	=66	=66	=66	=66	=66	=66
8F#\L	.	.	16aa\LL	.	16aa\LL	.	00r	.
.	.	.	16ff#\	.	16ff#\	.	.	.
8D\	.	.	16gg\	.	16gg\	.	.	.
.	.	.	16aa\JJ	.	16aa\JJ	.	.	.
8G\	.	.	16bb\LL	.	16bb\LL	.	.	.
.	.	.	16gg\	.	16gg\	.	.	.
8E\J	.	.	16aa\	.	16aa\	.	.	.
.	.	.	16bb\JJ	.	16bb\JJ	.	.	.
8F#\L	.	.	8aa\L|	.	8aa\L|	.	.	.
!	!	!	!LO:TUP:a:problem:klamra łukowa	!	!LO:TUP:a:problem:klamra łukowa	!	!	!
8D\	.	.	24aa\L	.	24aa\L	.	.	.
.	.	.	24gg\	.	24gg\	.	.	.
.	.	.	24ff#\JJ	.	24ff#\JJ	.	.	.
8G\	.	.	8ee\L	.	8ee\L	.	.	.
8B\J	.	.	8dd\J	.	8dd\J	.	.	.
=67	=67	=67	=67	=67	=67	=67	=67	=67
!LO:TX:a:t=P:problem:mixed beam	!	!	!	!	!	!	!	!
8A\L	.	.	16cc#\LL	.	16cc#\LL	.	.	.
.	.	.	16b\J	.	16b\J	.	.	.
8AA/J	.	.	8a\J	.	8a\J	.	.	.
4r	.	.	16r	.	16r	.	.	.
.	.	.	16a/LL	.	16a/LL	.	.	.
.	.	.	16a/	.	16a/	.	.	.
.	.	.	16a/JJ	.	16a/JJ	.	.	.
!LO:LB:g=original	!	!	!	!	!	!	!	!
8D\L	.	.	16dd\LL	.	16dd\LL	.	.	.
.	.	.	16a\	.	16a\	.	.	.
8F#\J	.	.	16a\	.	16a\	.	.	.
.	.	.	16a\JJ	.	16a\JJ	.	.	.
8C#/L	.	.	16ee\LL	.	16ee\LL	.	.	.
.	.	.	16a\	.	16a\	.	.	.
8AA/J	.	.	16a\	.	16a\	.	.	.
.	.	.	16a\JJ	.	16a\JJ	.	.	.
=68	=68	=68	=68	=68	=68	=68	=68	=68
!LO:TX:a:t=P:problem:mixed beam	!	!	!	!	!	!	!	!
8DD\L	.	.	16ff#\LL	.	16ff#\LL	.	.	.
.	.	.	16a\	.	16a\	.	.	.
8D/	.	.	16a\	.	16a\	.	.	.
.	.	.	16a\JJ	.	16a\JJ	.	.	.
8EE/	.	.	16gg\LL	.	16gg\LL	.	.	.
.	.	.	16a\	.	16a\	.	.	.
8E\J	.	.	16a\	.	16a\	.	.	.
.	.	.	16a\JJ	.	16a\JJ	.	.	.
8F#\L	.	.	16aa\LL	.	16aa\LL	.	.	.
.	.	.	16dd\	.	16dd\	.	.	.
8A\	.	.	16cc#\	.	16cc#\	.	.	.
.	.	.	16b\JJ	.	16b\JJ	.	.	.
8F#\	.	.	16a/LL	.	16a/LL	.	.	.
.	.	.	16g/	.	16g/	.	.	.
8G\J	.	.	16f#/	.	16f#/	.	.	.
.	.	.	16e/JJ	.	16e/JJ	.	.	.
=69	=69	=69	=69	=69	=69	=69	=69	=69
!LO:TX:a:t=P:problem:mixed beam	!	!	!	!	!	!	!	!
8A\L	.	.	16f#/LL	.	16f#/LL	.	.	.
.	.	.	16a/	.	16a/	.	.	.
8D\	.	.	16dd/	.	16dd/	.	.	.
.	.	.	16f#/JJ	.	16f#/JJ	.	.	.
!	!	!	!LO:TX:a:t=P:problem:mixed beam	!	!LO:TX:a:t=P:problem:mixed beam	!	!	!
8A\	.	.	8A/L	.	8A/L	.	.	.
8AA/J	.	.	8cc#\J	.	8cc#\J	.	.	.
4DD;;/	.	.	4d;;/	.	4d;;/	.	.	.
4r	.	.	4r	.	4r	.	.	.
!	!	!	!	!	!	!	!LO:TX:a:t=P:problem:w źródle "Verte." zapisane na pustym fragmencie pięciolinii, za taktem 69	!
!	!	!	!	!	!	!	!LO:TX:b:i:t=Verte.	!
!	!	!	!	!	!	!	!LO:PB:g=original	!
=70||	=70	=70||	=70	=70	=70||	=70	=70	=70
*M3/8	*	*	*M3/8	*	*M3/8	*	*M3/8	*
!	!	!	!LO:N:vis=0	!	!LO:N:vis=0	!	!	!
4BB/	.	.	2.r	.	2.r	.	8b\	Je-
.	.	.	.	.	.	.	8f#/	-su-
8r	.	.	.	.	.	.	8dd\	-le
=71	=71	=71	=71	=71	=71	=71	=71	=71
4BB/	.	.	.	.	.	.	8b\	par-
.	.	.	.	.	.	.	8f#/	-vu-
8r	.	.	.	.	.	.	8dd\	-le
=72	=72	=72	=72	=72	=72	=72	=72	=72
4BB/	.	.	4.r	.	4.r	.	8b\	Te
.	.	.	.	.	.	.	8f#/	a-
8r	.	.	.	.	.	.	8dd\	-do-
=73	=73	=73	=73	=73	=73	=73	=73	=73
4.BB/	.	.	8b/L	.	8b/L	.	8b\	-ra-
.	.	.	8f#/	.	8f#/	.	8f#/	-mus
.	.	.	8dd/J	.	8dd/J	.	8r	.
=74	=74	=74	=74	=74	=74	=74	=74	=74
!	!	!	!LO:TX:a:t=P:problem:mixed beam	!	!LO:TX:a:t=P:problem:mixed beam	!	!	!
!	!	!	!	!	!	!	!LO:N:vis=00	!
4.BB/	.	.	8b/L	.	8b/L	.	1.r	.
.	.	.	8f#/	.	8f#/	.	.	.
.	.	.	8ff#\J	.	8ff#\J	.	.	.
=75	=75	=75	=75	=75	=75	=75	=75	=75
4.BB/	.	.	8b/L	.	8b/L	.	.	.
.	.	.	16b/L	.	16b/L	.	.	.
.	.	.	16f#/J	.	16f#/J	.	.	.
.	.	.	8dd/J	.	8dd/J	.	.	.
=76	=76	=76	=76	=76	=76	=76	=76	=76
!	!	!	!LO:TX:a:t=P:problem:mixed beam	!	!LO:TX:a:t=P:problem:mixed beam	!	!	!
4.BB/	.	.	8b/L	.	8b/L	.	.	.
.	.	.	16b/L	.	16b/L	.	.	.
.	.	.	16f#/J	.	16f#/J	.	.	.
.	.	.	8ff#\J	.	8ff#\J	.	.	.
=77	=77	=77	=77	=77	=77	=77	=77	=77
4.BB/	.	.	8b/L	.	8b/L	.	.	.
.	.	.	16b/L	.	16b/L	.	.	.
.	.	.	16f#/	.	16f#/	.	.	.
.	.	.	16dd/	.	16dd/	.	.	.
.	.	.	16b/JJ	.	16b/JJ	.	.	.
!	!	!	!	!	!LO:LB:g=original	!	!	!
=78	=78	=78	=78	=78	=78	=78	=78	=78
4.BB/	.	.	8b\L	.	8b/L	.	4.ryy	.
.	.	.	16b\L	.	16b/L	.	.	.
.	.	.	16f#\	.	16f#/	.	.	.
.	.	.	16ff#\	.	16ff#/	.	.	.
.	.	.	16b\JJ	.	16b/JJ	.	.	.
=79	=79	=79	=79	=79	=79	=79	=79	=79
4.BB/	.	.	8b\L	.	8b/L	.	4.ryy	.
.	.	.	16b\L	.	16b/L	.	.	.
.	.	.	16f#\	.	16f#/	.	.	.
.	.	.	16dd\	.	16dd/	.	.	.
.	.	.	16b\JJ	.	16b/JJ	.	.	.
!	!	!	!LO:LB:g=original	!	!	!	!	!
=80	=80	=80	=80	=80	=80	=80	=80	=80
4.BB/	.	.	4.b/	.	4.b\	.	8b\	cor-
.	.	.	.	.	.	.	8f#/	-de
.	.	.	.	.	.	.	8dd\	Sin-
=81	=81	=81	=81	=81	=81	=81	=81	=81
!	!	!	!	!LO:DY:a:t=piano	!	!	!	!
4.BB/	.	.	4.B/	p	4.d/	.	8b\	-ce-
.	.	.	.	.	.	.	8f#/	-ro
.	.	.	.	.	.	.	8dd\	nos
=82	=82	=82	=82	=82	=82	=82	=82	=82
4.BB/	.	.	4.B/	.	4.d/	.	8b\	ti-
.	.	.	.	.	.	.	8f#/	-bi
.	.	.	.	.	.	.	8dd\	can-
=83	=83	=83	=83	=83	=83	=83	=83	=83
4.BB/	.	.	4.B/	.	4.d/	.	8b\	-ta-
.	.	.	.	.	.	.	8f#/	-mus.
.	.	.	.	.	.	.	8r	.
!	!	!	!	!	!	!	!LO:LB:g=original	!
=84	=84	=84	=84	=84	=84	=84	=84	=84
*M2/4	*	*	*M2/4	*	*M2/4	*	*M2/4	*
2BB/	.	.	2r	.	2r	.	4b\	Sint
.	.	.	.	.	.	.	8b\	ti-
.	.	.	.	.	.	.	8b\	-bi
!LO:LB:g=original	!	!	!	!	!	!	!	!
=85	=85	=85	=85	=85	=85	=85	=85	=85
8r	.	.	8r	.	8r	.	8b\	gra-
8F#\	.	.	8f#/	.	8b\	.	8b\	-ta
4BB/	.	.	4B/	.	4b\	.	4r	.
=86	=86	=86	=86	=86	=86	=86	=86	=86
!	!	!	!LO:N:vis=0	!	!LO:N:vis=0	!	!	!
2BB/	.	.	1r	.	1r	.	8dd\	mu-
.	.	.	.	.	.	.	16dd\	-ne-
.	.	.	.	.	.	.	16dd\	-ra
.	.	.	.	.	.	.	8dd\	la-
.	.	.	.	.	.	.	8dd\	-ta
=87	=87	=87	=87	=87	=87	=87	=87	=87
2BB/	.	.	.	.	.	.	8ff#\	Su-
.	.	.	.	.	.	.	16ff#\	-pli-
.	.	.	.	.	.	.	16ff#\	-ces
.	.	.	.	.	.	.	8ff#\	te
.	.	.	.	.	.	.	8ff#\	ro-
=88	=88	=88	=88	=88	=88	=88	=88	=88
2BB/	.	.	2r	.	2r	.	[<4ff#\	-ga-
.	.	.	.	.	.	.	8ff#\L]	.
.	.	.	.	.	.	.	8ee\J	.
=89	=89	=89	=89	=89	=89-	=89	=89	=89
4BB/	.	.	4r	.	4r	.	4dd\	-mus
!	!	!	!	!	!	!LO:DY:b:t=piano	!	!
4r	.	.	8r	.	8r	p	8r	.
!	!	!	!	!LO:DY:b:t=piano	!	!	!	!
.	.	.	8f#/	p	8f#/	.	8f#/	te
=90	=90	=90	=90	=90	=90	=90	=90	=90
!LO:N:vis=0	!	!	!	!	!	!	!	!
1r	.	.	8g#X/L	.	8g#X/L	.	(>8g#X\L	Sa-
.	.	.	8a#X/J	.	8a#X/J	.	8a#X\J)	.
.	.	.	8b\L	.	8b\L	.	(>8b\L	-lu-
.	.	.	8cc#\J	.	8cc#\J	.	8cc#\J)	.
=91	=91	=91	=91	=91	=91	=91	=91	=91
.	.	.	8dd\L	.	8dd\L	.	(>8dd\L	-ta-
.	.	.	8ee\	.	8ee\	.	8ee\J)	.
.	.	.	8ff#\	.	8ff#\	.	8ff#\L	-mus
.	.	.	8ggn\J	.	8ggn\J	.	8ggn\J	.
!	!	!	!	!	!	!	!LO:LB:g=original	!
=92	=92	=92	=92	=92	=92	=92	=92	=92
4F#\|	.	.	4f#/	.	4f#/	.	4f#/	-Sa-
4B\|	.	.	4b/	.	4b\	.	4b\	-lu-
=93	=93	=93	=93	=93	=93	=93	=93	=93
4F#\|	.	.	2f#/	.	2f#/	.	2f#/	-ta-
4FF#/|	.	.	.	.	.	.	.	.
=94	=94	=94	=94	=94	=94	=94	=94	=94
[>2BB/	.	.	8B/L	.	8B/L	.	4B/	-mus
.	.	.	8f#/J	.	8f#/J	.	.	.
.	.	.	4b/	.	4b/	.	4r	.
=95	=95	=95	=95	=95	=95	=95	=95	=95
2BB/_>	.	.	8r	.	8r	.	8b\	De-
!	!	!	!	!	!	!LO:DY:b:t=forte.	!	!
.	.	.	8f#/	.	8b\	f	8f#/	-um
.	.	.	4f#/	.	4b\	.	8r	.
.	.	.	.	.	.	.	8dd\	Lau-
=96	=96	=96	=96	=96	=96	=96	=96	=96
2BB/]	.	.	8r	.	8r	.	8dd\	-da-
.	.	.	8b\	.	8dd\	.	8b\	-mus
.	.	.	4b\	.	4dd\	.	8r	.
.	.	.	.	.	.	.	8ff#\	Lau-
=97	=97	=97	=97	=97	=97	=97	=97	=97
4BB/	.	.	8r	.	8r	.	8dd\	-da-
!	!	!	!LO:TX:a:t=P:problem:mixed beam	!	!LO:TX:a:t=P:problem:mixed beam	!	!	!
.	.	.	8dd\L	.	8ff#\L	.	8b\	-mus
4r	.	.	8dd\	.	8ff#\	.	8r	.
!	!	!	!	!LO:DY:b:t=piano	!	!	!	!
.	.	.	8f#/J	p	8f#/J	.	8f#/	Te
=98	=98	=98	=98	=98	=98	=98	=98	=98
!LO:N:vis=0	!	!	!	!	!	!	!	!
1r	.	.	8g#X/L	.	8g#X/L	.	(>8g#X\L	Sa-
.	.	.	8a#X/J	.	8a#X/J	.	8a#X\J)	.
.	.	.	8b\L	.	8b\L	.	(>8b\L	-lu-
.	.	.	8cc#\J	.	8cc#\J	.	8cc#\J)	.
=99	=99	=99	=99	=99	=99	=99	=99	=99
.	.	.	8dd\L	.	8dd\L	.	(>8dd\L	-ta-
.	.	.	8ee\	.	8ee\	.	8ee\J)	.
.	.	.	8ff#\	.	8ff#\	.	(>8ff#\L	-mus
.	.	.	8gg\J	.	8gg\J	.	8ggn\J)	.
!	!	!	!	!	!	!	!LO:LB:g=original	!
=100	=100	=100	=100	=100	=100	=100	=100	=100
4F#\|	.	.	4f#/	.	4f#/	.	4f#/	Sa-
4B\|	.	.	4b/	.	4b\	.	4b\	-lu-
=101	=101	=101	=101	=101	=101	=101	=101	=101
!LO:TX:b:i:t=Da Capo usq(ue) ad Sig(num)&colon; [2 fermaty]	!	!	!	!	!	!	!	!
4F#\|	.	.	2f#/	.	2f#/	.	2f#/	-ta-
4FF#/|	.	.	.	.	.	.	.	.
=102	=102	=102	=102	=102	=102	=102	=102	=102
4BB/	.	.	4B;/	.	4B/	.	4B/	-mus.
4r	.	.	4r	.	4r	.	4r	.
!	!	!	!LO:TX:a:t=P:problem:w źródle ta adnotacja zapisana na pięciolinii	!	!LO:TX:a:t=P:problem:w źródle ta adnotacja zapisana na pięciolinii	!	!LO:TX:a:t=P:problem:w źródle ta adnotacja zapisana na pięciolinii	!
!	!	!	!LO:TX:b:i:t=Da Capo usq(ue) \nad Sig(num)&colon; [fermata]	!	!LO:TX:b:i:t=Da Capo \nusq(ue) ad Sig(num)&colon; [2 fermaty]	!	!LO:TX:b:i:t=Da Capo usq(ue) ad Sig(num)&colon; [2 fermaty]	!
==	==	==	==	==	==	==	==	==
*-	*-	*-	*-	*-	*-	*-	*-	*-
!!!system-decoration: s1[g1]s4
!!!RDF**kern: > = above
!!!RDF**kern: < = below
!!!EED: Antoni Szymański
!!!EST: 2020-11-13
!!!ENC: Andrzej Borzym
!!!END: 2020-06-06
!!!RDF**kern: | = vertical stroke
